src/resources/img/dd.svg

<?xml version="1.0" encoding="UTF-8" standalone="no"?>
<svg
   xmlns:dc="http://purl.org/dc/elements/1.1/"
   xmlns:cc="http://creativecommons.org/ns#"
   xmlns:rdf="http://www.w3.org/1999/02/22-rdf-syntax-ns#"
   xmlns:svg="http://www.w3.org/2000/svg"
   xmlns="http://www.w3.org/2000/svg"
   xmlns:xlink="http://www.w3.org/1999/xlink"
   xmlns:sodipodi="http://sodipodi.sourceforge.net/DTD/sodipodi-0.dtd"
   xmlns:inkscape="http://www.inkscape.org/namespaces/inkscape"
   id="svg8"
   version="1.1"
   viewBox="0 0 67.579151 42.056115"
   height="158.95224"
   width="255.41727"
   sodipodi:docname="codes.svg"
   inkscape:version="0.92.3 (2405546, 2018-03-11)">
  <sodipodi:namedview
     pagecolor="#ffffff"
     bordercolor="#666666"
     borderopacity="1"
     objecttolerance="10"
     gridtolerance="10"
     guidetolerance="10"
     inkscape:pageopacity="0"
     inkscape:pageshadow="2"
     inkscape:window-width="1920"
     inkscape:window-height="951"
     id="namedview9"
     showgrid="false"
     inkscape:zoom="1.84375"
     inkscape:cx="111.37559"
     inkscape:cy="88.99014"
     inkscape:window-x="0"
     inkscape:window-y="27"
     inkscape:window-maximized="1"
     inkscape:current-layer="svg8" />
  <defs
     id="defs2">
    <linearGradient
       inkscape:collect="always"
       id="linearGradient829">
      <stop
         style="stop-color:#00ff66;stop-opacity:1"
         offset="0"
         id="stop825" />
      <stop
         style="stop-color:#008baf;stop-opacity:1"
         offset="1"
         id="stop827" />
    </linearGradient>
    <linearGradient
       inkscape:collect="always"
       xlink:href="#linearGradient829"
       id="linearGradient831"
       x1="2.7118645"
       y1="3.5443602"
       x2="254.8756"
       y2="157.03589"
       gradientUnits="userSpaceOnUse" />
  </defs>
  <metadata
     id="metadata5">
    <rdf:RDF>
      <cc:Work
         rdf:about="">
        <dc:format>image/svg+xml</dc:format>
        <dc:type
           rdf:resource="http://purl.org/dc/dcmitype/StillImage" />
        <dc:title />
      </cc:Work>
    </rdf:RDF>
  </metadata>
  <path
     style="opacity:1;vector-effect:none;fill:url(#linearGradient831);fill-opacity:1;fill-rule:nonzero;stroke:none;stroke-width:50.35613251;stroke-linecap:butt;stroke-linejoin:miter;stroke-miterlimit:4;stroke-dasharray:none;stroke-dashoffset:0;stroke-opacity:1;paint-order:fill markers stroke"
     d="M 15.009766 0 L 15.009766 64.617188 L 0 79.474609 L 25.169922 79.474609 L 33.179688 71.613281 C 33.179688 71.613281 33.674599 71.237838 33.816406 70.917969 C 33.913079 70.699399 33.886719 70.130859 33.886719 70.130859 L 33.886719 18.955078 L 93.207031 18.955078 C 99.653371 25.206609 106.09858 31.457441 112.54492 37.708984 C 117.00246 33.386238 121.46045 29.064983 125.91797 24.742188 C 117.41482 16.495957 108.91133 8.2482305 100.4082 0.001953125 L 90.800781 0.001953125 L 90.800781 0 L 15.009766 0 z M 154.01172 0 C 140.16495 13.765103 126.31749 27.529817 112.4707 41.294922 C 99.50328 54.186535 86.535782 67.07909 73.568359 79.970703 C 86.529043 92.539681 99.490492 105.10871 112.45117 117.67773 C 116.90871 113.35494 121.36474 109.03173 125.82227 104.70898 C 117.3191 96.462751 108.81762 88.216933 100.31445 79.970703 C 108.8235 71.511368 117.33079 63.051132 125.83984 54.591797 C 137.78957 42.712398 149.74168 30.834429 161.69141 18.955078 L 161.69531 18.955078 L 180.76172 0 L 180.75586 0 L 154.01172 0 z M 189.94141 0 L 170.875 18.955078 L 221.53125 18.955078 L 221.53125 70.130859 C 221.53125 70.130859 221.50473 70.699387 221.60156 70.917969 C 221.74337 71.237755 222.23828 71.613281 222.23828 71.613281 L 230.24609 79.474609 L 255.41797 79.474609 L 240.4082 64.617188 L 240.4082 0 L 189.94141 0 z M 142.9668 41.275391 C 138.50926 45.598191 134.05127 49.921397 129.59375 54.244141 C 138.09692 62.49037 146.60035 70.736196 155.10352 78.982422 C 146.59447 87.441753 138.08522 95.900048 129.57617 104.35938 C 117.62645 116.23874 105.67629 128.1187 93.726562 139.99805 L 93.720703 139.99805 L 74.65625 158.95312 L 74.660156 158.95312 L 101.40625 158.95312 C 115.25304 145.18801 129.09852 131.42135 142.94531 117.65625 C 155.91274 104.76463 168.88023 91.874031 181.84766 78.982422 C 168.88697 66.413448 155.92748 53.844417 142.9668 41.275391 z M 0 79.476562 L 15.009766 94.335938 L 15.009766 158.95312 L 65.474609 158.95312 L 84.541016 139.99805 L 33.886719 139.99805 L 33.886719 88.822266 C 33.886719 88.822266 33.91309 88.251788 33.816406 88.033203 C 33.674598 87.713349 33.179688 87.337891 33.179688 87.337891 L 25.169922 79.476562 L 0 79.476562 z M 230.24609 79.476562 L 222.23828 87.337891 C 222.23828 87.337891 221.74337 87.713338 221.60156 88.033203 C 221.50488 88.251773 221.53125 88.822266 221.53125 88.822266 L 221.53125 139.99805 L 162.21094 139.99805 C 155.76459 133.74652 149.31939 127.49371 142.87305 121.24219 C 138.41551 125.56493 133.95752 129.88814 129.5 134.21094 C 138.00315 142.45717 146.50664 150.70294 155.00977 158.94922 L 164.61719 158.94922 L 164.61719 158.95312 L 240.4082 158.95312 L 240.4082 94.335938 L 255.41797 79.476562 L 230.24609 79.476562 z "
     transform="scale(0.26458334)"
     id="path1017" />
</svg>

<svg xmlns="http://www.w3.org/2000/svg" xmlns:xlink="http://www.w3.org/1999/xlink" viewBox="0 0 67.579 42.056" height="158.952" width="255.417"><defs><linearGradient id="a"><stop offset="0" stop-color="#0f6"/><stop offset="1" stop-color="#008baf"/></linearGradient><linearGradient xlink:href="#a" id="b" x1="2.712" y1="3.544" x2="254.876" y2="157.036" gradientUnits="userSpaceOnUse"/></defs><path d="M15.01 0v64.617L0 79.475h25.17l8.01-7.862s.495-.375.636-.695c.097-.219.07-.787.07-.787V18.955h59.321l19.338 18.754 13.373-12.967-25.51-24.74h-9.607V0H15.01zm139.002 0L112.47 41.295 73.568 79.97l38.883 37.707 13.371-12.969-25.508-24.738 25.526-25.38c11.95-11.879 23.902-23.757 35.851-35.636h.004L180.762 0h-26.75zm35.93 0l-19.067 18.955h50.656v51.176s-.026.568.07.787c.142.32.637.695.637.695l8.008 7.862h25.172l-15.01-14.858V0h-50.467zm-46.975 41.275l-13.373 12.97 25.51 24.737-25.528 25.377L93.726 140h-.005l-19.065 18.954h26.75l41.54-41.297 38.902-38.674-38.881-37.707zM0 79.477l15.01 14.859v64.617h50.465l19.066-18.955H33.887V88.822s.026-.57-.07-.789c-.142-.32-.637-.695-.637-.695l-8.01-7.861H0zm230.246 0l-8.008 7.86s-.495.376-.636.696c-.097.219-.07.79-.07.79v51.175H162.21l-19.338-18.756-13.373 12.969 25.51 24.738h9.607v.004h75.791V94.336l15.01-14.86h-25.172z" transform="scale(.26458)" fill="url(#b)" stroke-width="50.356" paint-order="fill markers stroke"/></svg>
